X:6
T:Pleasant Street
R:Reel
C:Mike Bell and Rick Mohr
L:1/8
M:C|
K:A
"Bm"B2cB FBcB|"A"A2cA EAcA|"Bm"B2cB FBce|"A"fecA B2c2|
"Bm"B2cB FBcB|"A"A2cA EAcA|"D"EFAB "A"cefe|1"E"cABc cBBA:|2"E"cABc "A"A2|]
cd|"A"eA A/2A/2A cAaA|gAfA ecAc|"Bm"dB B/2B/2B bBaB|"E"gagf edcd|
"A"eA A/2A/2A cAaA|gAfA ecAc|"D"BAFA "A"EFAf|"E"ecBc "A"A2:|
